svgs/sharp-solid/chart-gantt.svg

<svg xmlns="http://www.w3.org/2000/svg" viewBox="0 0 512 512"><!--! Font Awesome Pro 6.6.0 by @fontawesome - https://fontawesome.com License - https://fontawesome.com/license (Commercial License) Copyright 2024 Fonticons, Inc. --><path d="M64 32l0 32 0 352 416 0 32 0 0 64-32 0L32 480 0 480l0-32L0 64 0 32l64 0zm64 64l32 0 96 0 32 0 0 64-32 0-96 0-32 0 0-64zm96 96l128 0 32 0 0 64-32 0-128 0-32 0 0-64 32 0zm160 96l64 0 32 0 0 64-32 0-64 0-32 0 0-64 32 0z"/></svg>

<svg xmlns="http://www.w3.org/2000/svg" viewBox="0 0 512 512"><!--! Font Awesome Pro 6.4.0 by @fontawesome - https://fontawesome.com License - https://fontawesome.com/license (Commercial License) Copyright 2023 Fonticons, Inc. --><path d="M64 32V64 416H480h32v64H480 32 0V448 64 32H64zm64 64h32l96 0h32l0 64-32 0H160 128V96zm96 96H352h32v64H352 224 192V192h32zm160 96h64 32v64H448 384 352V288h32z"/></svg>
